public/formular-icons/greece/lower-rho.svg

<svg style="vertical-align:-.489ex" xmlns="http://www.w3.org/2000/svg" width="1.17ex" height="1.489ex" viewBox="0 -442 517 658" xmlns:xlink="http://www.w3.org/1999/xlink"><defs><path id="a" d="M58-216q-33 0-35 30 0 10 50 212t54 208q16 55 55 107 70 86 159 100h8q6 0 10 1 73 0 112-48t39-118q0-57-24-111t-61-91-80-61-79-23h-18q-51 0-83 45l-5 6-27-112q-25-97-29-110t-12-21q-16-14-34-14Zm366 538q0 37-17 60t-50 23q-35 0-70-29t-56-76q-14-31-38-130l-17-68q17-76 84-76 38 0 74 36 33 30 55 96t29 108 6 56Z"/></defs><g stroke="currentColor" fill="currentColor" stroke-width="0"><use data-c="1D70C" xlink:href="#a" transform="scale(1 -1)"/></g></svg>

<svg style="vertical-align: -0.489ex" xmlns="http://www.w3.org/2000/svg" width="1.17ex" height="1.489ex" role="img" focusable="false" viewBox="0 -442 517 658" xmlns:xlink="http://www.w3.org/1999/xlink"><defs><path id="MJX-118-TEX-I-1D70C" d="M58 -216Q25 -216 23 -186Q23 -176 73 26T127 234Q143 289 182 341Q252 427 341 441Q343 441 349 441T359 442Q432 442 471 394T510 276Q510 219 486 165T425 74T345 13T266 -10H255H248Q197 -10 165 35L160 41L133 -71Q108 -168 104 -181T92 -202Q76 -216 58 -216ZM424 322Q424 359 407 382T357 405Q322 405 287 376T231 300Q217 269 193 170L176 102Q193 26 260 26Q298 26 334 62Q367 92 389 158T418 266T424 322Z"></path></defs><g stroke="currentColor" fill="currentColor" stroke-width="0" transform="scale(1,-1)"><g data-mml-node="math"><g data-mml-node="mi"><use data-c="1D70C" xlink:href="#MJX-118-TEX-I-1D70C"></use></g></g></g></svg>
